src/icons/svgs/16/file-xmark.svg

<svg width="16" height="16" viewBox="0 0 16 16" fill="none" xmlns="http://www.w3.org/2000/svg">
<path d="M9.66667 1V4.25H13L9.66667 1ZM8.83333 4.25V1H4.25C3.55964 1 3 1.54564 3 2.21875V12.7812C3 13.4541 3.55964 14 4.25 14H11.75C12.4404 14 13 13.4544 13 12.7812V5.0625H9.6901C9.20573 5.0625 8.83333 4.69941 8.83333 4.25ZM10.0859 7.90879L8.88281 9.125L10.1076 10.3191C10.3517 10.5572 10.3517 10.9427 10.1076 11.1809C9.8632 11.419 9.46797 11.4188 9.2237 11.1809L8 9.98574L6.77526 11.1799C6.53091 11.418 6.13568 11.4178 5.89141 11.1799C5.64727 10.9418 5.64727 10.5563 5.89141 10.3181L7.11719 9.125L5.89062 7.90879C5.64648 7.67075 5.64648 7.2852 5.89062 7.04703C6.13477 6.80887 6.53021 6.80899 6.77448 7.04703L8 8.26426L9.22474 7.07014C9.46888 6.8321 9.86432 6.8321 10.1086 7.07014C10.3529 7.30817 10.3516 7.69297 10.0859 7.90879Z" fill="black"/>
</svg>

<svg width="16" height="16" viewBox="0 0 16 16" xmlns="http://www.w3.org/2000/svg">
    <path d="M9.667 1v3.25H13L9.667 1zm-.834 3.25V1H4.25C3.56 1 3 1.546 3 2.219V12.78c0 .674.56 1.22 1.25 1.22h7.5c.69 0 1.25-.546 1.25-1.219V5.062H9.69c-.484 0-.857-.363-.857-.812zm1.253 3.659L8.883 9.125l1.225 1.194a.599.599 0 0 1 0 .862.636.636 0 0 1-.884 0L8 9.986 6.775 11.18a.636.636 0 0 1-.884 0 .599.599 0 0 1 0-.862l1.226-1.193-1.226-1.216a.599.599 0 0 1 0-.862.636.636 0 0 1 .883 0L8 8.264 9.225 7.07a.636.636 0 0 1 .884 0c.244.238.243.623-.023.839z"/>
</svg>
